X: 1
T: Vanha valssi 156
O: Finland
S: from Kasareikka kansantanhuryhm\"a, Stockholm
F: http://rsc.anu.edu.au/~pdc/revontulet_dots/music/Vanha_valssi.html
R: waltz
Z: 2018 John Chambers <jc:trillian.mit.edu>
M: 3/4
L: 1/8
K: Bb
F2 |\
"Bb"B2 B2 d2 | B4 d2 | "Eb"dc ed cB | "F7"BA cA F2 |\
"Bb"B2 B2 d2 | B4 d2 | "F7"dc ec Ac | "Bb"B4 :|
|: d2 |\
"Gm"dc ed cB | BA cB AG | "D7"G^F AF DF| "Gm"G^F GA Bc |\
"Gm"dc ed cB | "Eb"BA cB AG | "D7"G^F AF DF | "Gm"G4 :|
